X:0473
T:The Petticoat.
M:6/8
L:1/8
Q:3/8=112
I: :: ||
Z:Jack Campin * www.campin.me.uk * 2009
K:D
   (D/E/)|F2F (FED) |A2A  (ABc)|d2B (AFD)|    E3  E2
    D    |F2F (FE).D|A2A   A2d |Bgf  edc |    d3- d2:|
 e       |fed  cde  |fdB T^A2F |dcB  cf^A|   TB4
d/c/B    |A2A  A2f  |ede   d2B |AFD  G2F |{F}TE4
G/F/E    |D2E  F2G  |BGd   dcB |AFD  GEA |    D3- D2:|

